img/img_ssam_activity2.svg

<svg width="240" height="240" viewBox="0 0 240 240" fill="none" xmlns="http://www.w3.org/2000/svg">
<path d="M230 0H10C4.47715 0 0 4.47715 0 10V230C0 235.523 4.47715 240 10 240H230C235.523 240 240 235.523 240 230V10C240 4.47715 235.523 0 230 0Z" fill="#9AE2C7"/>
<path d="M14.38 82.75C14.44 70.84 26.31 49.34 44.26 33.31C59.1116 20.1624 78.2254 12.8438 98.06 12.71C122.13 12.71 133.97 23.57 139.41 37.81C146.52 56.4 130.78 80.81 95.68 80.25C77.6 80 53.13 69.12 42.14 69.17C29.36 69.23 21.67 74 14.38 82.75Z" fill="#FFE97B"/>
<path d="M228.39 74.0701C212.39 94.9601 188.61 100.07 171.2 93.8001C145.89 84.7401 123.72 82.8001 105.59 91.8001C98.42 95.3901 92.14 101.18 89.59 108.8C87.9017 113.795 87.6131 119.157 88.7554 124.304C89.8977 129.452 92.4273 134.188 96.07 138C110.62 152.93 131.7 154.46 147.56 153.44C169.95 152 190.63 140.24 205.74 125.07C214.47 116.31 226.19 98.0701 228.39 74.0701Z" fill="#FFE97B"/>
<path d="M120.14 120.19C122.35 117.58 124.53 114.94 126.88 112.45C128.05 111.21 129.26 110.01 130.54 108.88C131.05 108.43 131.54 107.76 132.28 107.7C133.146 107.832 133.986 108.098 134.77 108.49C140.52 110.49 145.77 113.43 151.07 116.31C153.07 117.42 154.93 114.31 152.89 113.2C146.83 109.91 140.89 106.6 134.22 104.52C132.49 103.97 131.04 103.9 129.54 105.04C128.091 106.172 126.728 107.409 125.46 108.74C122.67 111.56 120.16 114.62 117.59 117.64C116.09 119.39 118.59 121.96 120.14 120.19Z" fill="#28C99B"/>
<path d="M119.7 115.94C119.761 120.451 120.338 124.94 121.42 129.32C121.595 130.201 121.998 131.022 122.587 131.701C123.176 132.379 123.932 132.893 124.78 133.19C126.63 133.77 128.78 133.47 130.7 133.4C135.38 133.23 140.07 132.9 144.7 132.4C146.5 132.21 148.91 132.31 150.39 131.1C152.03 129.76 151.69 127.74 151.44 125.89C150.768 121.051 149.783 116.261 148.49 111.55C148.357 111.088 148.047 110.699 147.627 110.466C147.207 110.233 146.711 110.177 146.25 110.31C145.789 110.443 145.399 110.753 145.166 111.173C144.934 111.593 144.877 112.088 145.01 112.55C146.173 116.783 147.088 121.08 147.75 125.42C147.82 125.9 148.38 127.93 148.08 128.31C147.78 128.69 145.82 128.71 145.25 128.77C142.87 129.03 140.487 129.247 138.1 129.42C135.713 129.593 133.327 129.723 130.94 129.81C129.84 129.81 128.74 129.9 127.63 129.91C126.85 129.91 125.77 130.04 125.23 129.36C124.801 128.538 124.549 127.635 124.49 126.71C124.24 125.48 124.03 124.24 123.85 123C123.536 120.678 123.346 118.342 123.28 116C123.2 113.69 119.59 113.68 119.67 116L119.7 115.94Z" fill="#28C99B"/>
<path d="M137.83 118.88C137.06 118.35 134.36 118.82 132.83 119.06C132.29 119.15 131.66 119.32 131.46 119.82C131.37 120.127 131.37 120.453 131.46 120.76C132.125 124.181 133.023 127.552 134.15 130.85C134.196 131.039 134.293 131.212 134.43 131.35C134.639 131.479 134.885 131.535 135.13 131.51H139.42C139.597 131.533 139.777 131.521 139.949 131.472C140.121 131.424 140.281 131.342 140.42 131.23C140.57 131.012 140.654 130.755 140.66 130.49C141 126.48 138.61 119.4 137.83 118.88Z" fill="#28C99B"/>
<path d="M162.54 109C161.603 114.554 160.976 120.156 160.66 125.78C160.663 126.256 160.853 126.713 161.19 127.05C161.527 127.387 161.983 127.577 162.46 127.58C162.935 127.572 163.388 127.38 163.724 127.044C164.06 126.708 164.252 126.255 164.26 125.78C164.545 120.492 165.126 115.223 166 110C166.115 109.539 166.049 109.051 165.814 108.638C165.58 108.224 165.195 107.917 164.74 107.78C164.279 107.657 163.787 107.72 163.372 107.955C162.957 108.191 162.651 108.581 162.52 109.04L162.54 109Z" fill="#28C99E"/>
<path d="M160.37 131.05L160.19 131.48L160.12 131.96L160.19 132.44C160.19 132.44 160.37 132.86 160.37 132.88L160.65 133.24L161.02 133.52L161.24 133.62L161.46 133.71H161.71H161.95H162L162.48 133.65C162.48 133.65 162.91 133.47 162.91 133.46L163.28 133.18L163.56 132.81C163.644 132.673 163.708 132.525 163.75 132.37C163.75 132.37 163.82 131.91 163.82 131.89C163.82 131.89 163.75 131.42 163.75 131.41L163.66 131.2C163.72 131.36 163.6 131.05 163.56 130.98C163.447 130.774 163.286 130.599 163.09 130.47C162.921 130.308 162.709 130.197 162.48 130.15C162.245 130.08 161.995 130.08 161.76 130.15C161.522 130.16 161.291 130.232 161.09 130.36L160.73 130.64C160.506 130.861 160.344 131.137 160.26 131.44L160.2 131.92C160.197 132.241 160.284 132.556 160.45 132.83L160.27 132.4L160.2 131.92L160.27 131.44L160.46 131.01L160.74 130.64L161.1 130.36L161.53 130.18L162.01 130.12H162L162.47 130.18L162.91 130.36L163.28 130.64L163.56 131.01L163.75 131.44L163.82 131.92L163.75 132.4L163.57 132.83C163.803 132.406 163.867 131.909 163.75 131.44C163.701 131.211 163.59 131.001 163.43 130.83C163.307 130.632 163.135 130.47 162.93 130.36L162.5 130.18C162.172 130.095 161.828 130.095 161.5 130.18L161.07 130.36C160.802 130.518 160.578 130.742 160.42 131.01L160.37 131.05Z" fill="#28C99E"/>
<path d="M110.87 36.3201C111.68 36.17 112.517 36.2832 113.259 36.643C114 37.0029 114.607 37.5906 114.99 38.3201C115.292 39.0357 115.322 39.8368 115.076 40.5732C114.829 41.3096 114.322 41.9307 113.65 42.3201C112.71 42.8301 111.65 43.1001 110.65 43.5801C109.584 44.1229 108.698 44.9636 108.1 46.0001C106.89 48.0001 106.95 50.4601 107.17 52.7001C107.204 53.1608 107.411 53.5915 107.75 53.9058C108.088 54.2202 108.533 54.3949 108.995 54.3949C109.457 54.3949 109.902 54.2202 110.24 53.9058C110.579 53.5915 110.786 53.1608 110.82 52.7001C110.62 50.7001 110.27 47.9701 112.41 46.8701C113.52 46.3001 114.78 46.0401 115.84 45.3601C116.926 44.6578 117.779 43.6484 118.29 42.4601C118.802 41.2598 118.969 39.9403 118.771 38.6504C118.573 37.3604 118.019 36.1515 117.17 35.1601C116.259 34.1822 115.112 33.4552 113.839 33.0489C112.565 32.6426 111.209 32.5707 109.9 32.8401C109.453 32.9711 109.073 33.2673 108.837 33.6686C108.601 34.0699 108.527 34.546 108.63 35.0001C108.765 35.4617 109.074 35.8529 109.492 36.0916C109.91 36.3302 110.404 36.3978 110.87 36.2801V36.3201Z" fill="#28C99B"/>
<path d="M107.35 57.7701L107.25 58.0201C107.185 58.2591 107.185 58.511 107.25 58.7501C107.259 58.9927 107.335 59.2282 107.47 59.4301C107.58 59.6381 107.742 59.8139 107.94 59.9401C108.115 60.1017 108.328 60.2154 108.56 60.2701L109.04 60.3301C109.364 60.334 109.683 60.2474 109.96 60.0801L110.33 59.8001C110.554 59.5751 110.716 59.2961 110.8 58.9901L110.9 58.7401C110.96 58.5004 110.96 58.2497 110.9 58.0101C110.887 57.7682 110.811 57.5339 110.68 57.3301C110.57 57.122 110.408 56.9462 110.21 56.8201C110.037 56.6576 109.823 56.5468 109.59 56.5001L109.11 56.4301C108.786 56.4261 108.467 56.5127 108.19 56.6801L107.82 56.9601C107.593 57.1823 107.43 57.4624 107.35 57.7701Z" fill="#28C99B"/>
<path d="M68.35 46.5501C70.6 43.9201 72.8 41.2401 75.18 38.7201C76.36 37.4701 77.59 36.2501 78.88 35.1101C79.39 34.6501 79.93 33.9701 80.64 33.9101C81.5195 34.045 82.3728 34.3149 83.17 34.7101C88.98 36.7101 94.29 39.7101 99.66 42.6301C101.73 43.7501 103.57 40.6301 101.51 39.4801C95.37 36.1401 89.3 32.7901 82.61 30.6901C80.85 30.1401 79.39 30.0601 77.87 31.2201C76.4035 32.3782 75.0231 33.6415 73.74 35.0001C70.92 37.8601 68.37 41.0001 65.74 44.0001C64.22 45.7801 66.74 48.3701 68.32 46.5801L68.35 46.5501Z" fill="#28C99B"/>
<path d="M67.91 42.26C67.9742 46.8241 68.5545 51.3663 69.64 55.8C69.8201 56.6916 70.2292 57.521 70.8271 58.2066C71.425 58.8922 72.1911 59.4103 73.05 59.71C74.92 60.3 77.12 59.99 79.05 59.92C83.79 59.7466 88.5267 59.4133 93.26 58.92C95.08 58.73 97.52 58.83 99.01 57.61C100.67 56.26 100.33 54.21 100.08 52.33C99.3951 47.4335 98.393 42.5866 97.08 37.82C96.94 37.3618 96.6259 36.9768 96.2052 36.7476C95.7844 36.5184 95.2906 36.4634 94.8297 36.5943C94.3689 36.7252 93.9777 37.0317 93.7403 37.4478C93.5029 37.864 93.4382 38.3566 93.56 38.82C94.7349 43.0959 95.6598 47.4365 96.33 51.82C96.41 52.32 96.97 54.37 96.67 54.75C96.37 55.13 94.38 55.16 93.8 55.22C91.3933 55.48 88.9833 55.7 86.57 55.88C84.16 56.05 81.74 56.19 79.32 56.28C78.2 56.28 77.09 56.36 75.97 56.37C75.17 56.37 74.08 56.51 73.53 55.81C73.0995 54.9779 72.8474 54.0651 72.79 53.13C72.54 51.89 72.32 50.63 72.14 49.38C71.8222 47.0218 71.6286 44.6485 71.56 42.27C71.48 39.92 67.83 39.91 67.91 42.27V42.26Z" fill="#28C99B"/>
<path d="M86.27 45.22C85.48 44.69 82.75 45.22 81.16 45.41C80.61 45.5 79.98 45.67 79.77 46.19C79.6753 46.4962 79.6753 46.8239 79.77 47.13C80.44 50.5953 81.3488 54.0102 82.49 57.35C82.5326 57.5405 82.6299 57.7143 82.77 57.85C82.9782 57.9907 83.2317 58.0478 83.48 58.01H87.82C88.1783 58.0455 88.5364 57.9417 88.82 57.72C88.9793 57.5065 89.0637 57.2464 89.06 56.98C89.46 52.93 87.05 45.76 86.27 45.22Z" fill="#28C99B"/>
<path d="M240 194.67C213.15 207.11 178.87 209.87 156.45 207.39C157.9 211.69 153.57 216.73 148.9 216.19C148.1 220.45 142.11 222.85 138.4 220.4C137.4 225.17 125.03 226.58 120 225.94C107.92 224.4 95.13 213.4 83 213.76C52.11 214.67 12.47 202.89 0 196.2V132.67C18.78 149.32 53.44 168.22 82.5 171.78C84.0904 172.123 85.713 172.294 87.34 172.29C89.0346 172.021 90.6774 171.492 92.21 170.72C97.83 168.26 104.62 166.04 109.89 169.12C110.89 169.72 111.95 170.54 113.15 170.44C113.87 170.315 114.553 170.032 115.15 169.61C119.27 167.19 124.62 164.7 128.97 166.8C140.64 172.44 155.55 172.17 166.04 170.8C191.88 167.36 225.43 149.8 239.99 129.46L240 194.67Z" fill="#FFE7E2"/>
<path d="M113.5 169.74C112.141 170.257 110.846 170.928 109.64 171.74C108.41 172.545 107.256 173.458 106.19 174.47C105.098 175.493 104.094 176.607 103.19 177.8C102.722 178.356 102.38 179.008 102.19 179.71C102.047 180.516 102.155 181.347 102.5 182.09C103.5 184.5 106.01 185.89 108.5 186.43C111.525 187.026 114.654 186.812 117.57 185.81C120.925 184.563 124.102 182.882 127.02 180.81C127.87 180.25 127.08 178.88 126.22 179.43C123.834 181.09 121.3 182.527 118.65 183.72C116.031 184.841 113.183 185.324 110.34 185.13C109.243 185.099 108.163 184.847 107.165 184.39C106.167 183.933 105.271 183.28 104.53 182.47C104.153 182.007 103.88 181.468 103.73 180.89C103.661 180.575 103.662 180.249 103.733 179.934C103.803 179.62 103.942 179.325 104.14 179.07C104.894 177.99 105.752 176.985 106.7 176.07C107.755 175.025 108.888 174.062 110.09 173.19C111.35 172.27 112.69 171.54 114.01 170.73C114.56 170.4 114.21 169.43 113.56 169.66L113.5 169.74Z" fill="#343B38"/>
<path d="M124.49 181.89C125.67 182.509 126.889 183.05 128.14 183.51C129.36 184.06 130.56 184.67 131.75 185.3C134.07 186.52 136.33 187.87 138.58 189.24C142.92 191.89 147.2 194.86 150.44 198.83C151.268 199.838 152.007 200.915 152.65 202.05C152.98 202.62 153.28 203.21 153.55 203.8C153.82 204.39 153.98 205.33 154.47 205.8C154.569 205.895 154.691 205.963 154.824 205.997C154.956 206.031 155.096 206.031 155.228 205.995C155.361 205.96 155.482 205.892 155.58 205.796C155.679 205.701 155.751 205.581 155.79 205.45C155.821 204.812 155.664 204.18 155.34 203.63C155.07 203 154.79 202.39 154.47 201.79C153.9 200.723 153.252 199.7 152.53 198.73C150.988 196.681 149.205 194.824 147.22 193.2C145.09 191.486 142.841 189.925 140.49 188.53C138.14 187.1 135.75 185.74 133.3 184.53C131.94 183.84 130.55 183.2 129.13 182.63C127.727 181.941 126.22 181.485 124.67 181.28C124.592 181.284 124.518 181.313 124.457 181.363C124.397 181.412 124.353 181.479 124.333 181.555C124.313 181.63 124.318 181.71 124.346 181.783C124.374 181.856 124.424 181.918 124.49 181.96V181.89Z" fill="#343B38"/>
<path d="M138.19 219.13C137.973 218.539 137.546 218.047 136.99 217.75C136.43 217.34 135.85 216.96 135.25 216.6C134.067 215.919 132.833 215.331 131.56 214.84C130.29 214.32 128.98 213.84 127.66 213.46C127.02 213.26 126.37 213.05 125.66 212.9C125.019 212.669 124.341 212.557 123.66 212.57C123.597 212.589 123.539 212.625 123.493 212.672C123.447 212.72 123.414 212.779 123.397 212.843C123.38 212.907 123.38 212.974 123.396 213.038C123.412 213.103 123.445 213.162 123.49 213.21C124.027 213.552 124.619 213.799 125.24 213.94C125.87 214.18 126.53 214.35 127.18 214.55C128.47 214.95 129.75 215.39 131 215.89C132.246 216.396 133.461 216.973 134.64 217.62C135.2 217.93 135.75 218.26 136.28 218.62C136.753 219.042 137.335 219.322 137.96 219.43C137.996 219.428 138.03 219.419 138.062 219.402C138.093 219.385 138.12 219.361 138.141 219.332C138.162 219.304 138.177 219.271 138.183 219.236C138.19 219.201 138.189 219.165 138.18 219.13H138.19Z" fill="#343B38"/>
<path d="M149.12 215.15C149.137 214.407 148.968 213.672 148.63 213.01C148.343 212.36 148.009 211.731 147.63 211.13C146.864 209.887 145.917 208.764 144.82 207.8C143.627 206.762 142.349 205.825 141 205C140.363 204.582 139.694 204.215 139 203.9C138.325 203.549 137.588 203.335 136.83 203.27C136.779 203.273 136.731 203.291 136.692 203.323C136.652 203.354 136.624 203.398 136.611 203.447C136.597 203.495 136.6 203.547 136.618 203.594C136.635 203.642 136.668 203.682 136.71 203.71C137.33 204.12 138.04 204.4 138.71 204.82C139.38 205.24 139.89 205.59 140.46 205.99C141.723 206.812 142.932 207.714 144.08 208.69C145.115 209.606 146.02 210.659 146.77 211.82C147.135 212.374 147.469 212.949 147.77 213.54C148.039 214.158 148.375 214.744 148.77 215.29C148.93 215.48 149.19 215.29 149.21 215.11L149.12 215.15Z" fill="#343B38"/>
</svg>

<svg xmlns="http://www.w3.org/2000/svg" width="240" height="240" fill="none" xmlns:v="https://vecta.io/nano"><path d="M230 0H10C4.477 0 0 4.477 0 10v220a10 10 0 0 0 10 10h220a10 10 0 0 0 10-10V10a10 10 0 0 0-10-10z" fill="#9ae2c7"/><path d="M14.38 82.75c.06-11.91 11.93-33.41 29.88-49.44a82 82 0 0 1 53.8-20.6c24.07 0 35.91 10.86 41.35 25.1 7.11 18.59-8.63 43-43.73 42.44C77.6 80 53.13 69.12 42.14 69.17c-12.78.06-20.47 4.83-27.76 13.58zm214.01-8.68c-16 20.89-39.78 26-57.19 19.73-25.31-9.06-47.48-11-65.61-2-7.17 3.59-13.45 9.38-16 17a28.88 28.88 0 0 0 6.48 29.2c14.55 14.93 35.63 16.46 51.49 15.44 22.39-1.44 43.07-13.2 58.18-28.37 8.73-8.76 20.45-27 22.65-51z" fill="#ffe97b"/><g fill="#28c99b"><path d="M120.14 120.19c2.21-2.61 4.39-5.25 6.74-7.74 1.17-1.24 2.38-2.44 3.66-3.57.51-.45 1-1.12 1.74-1.18.866.132 1.706.398 2.49.79 5.75 2 11 4.94 16.3 7.82 2 1.11 3.86-2 1.82-3.11-6.06-3.29-12-6.6-18.67-8.68-1.73-.55-3.18-.62-4.68.52a37.64 37.64 0 0 0-4.08 3.7c-2.79 2.82-5.3 5.88-7.87 8.9-1.5 1.75 1 4.32 2.55 2.55z"/><path d="M119.7 115.94c.061 4.511.638 9 1.72 13.38.175.881.578 1.702 1.167 2.381a5.17 5.17 0 0 0 2.193 1.489c1.85.58 4 .28 5.92.21 4.68-.17 9.37-.5 14-1 1.8-.19 4.21-.09 5.69-1.3 1.64-1.34 1.3-3.36 1.05-5.21a112.8 112.8 0 0 0-2.95-14.34 1.81 1.81 0 0 0-.863-1.084c-.42-.233-.916-.289-1.377-.156s-.851.443-1.084.863a1.81 1.81 0 0 0-.156 1.377c1.163 4.233 2.078 8.53 2.74 12.87.07.48.63 2.51.33 2.89s-2.26.4-2.83.46a196.88 196.88 0 0 1-7.15.65c-2.387.173-4.773.303-7.16.39-1.1 0-2.2.09-3.31.1-.78 0-1.86.13-2.4-.55a6.64 6.64 0 0 1-.74-2.65c-.25-1.23-.46-2.47-.64-3.71a66.13 66.13 0 0 1-.57-7c-.08-2.31-3.69-2.32-3.61 0l.03-.06z"/><path d="M137.83 118.88c-.77-.53-3.47-.06-5 .18-.54.09-1.17.26-1.37.76a1.67 1.67 0 0 0 0 .94c.665 3.421 1.563 6.792 2.69 10.09a1.07 1.07 0 0 0 .28.5c.209.129.455.185.7.16h4.29c.177.023.357.011.529-.038a1.31 1.31 0 0 0 .471-.242 1.36 1.36 0 0 0 .24-.74c.34-4.01-2.05-11.09-2.83-11.61z"/></g><path d="M162.54 109a152.19 152.19 0 0 0-1.88 16.78c.003.476.193.933.53 1.27a1.81 1.81 0 0 0 1.27.53 1.83 1.83 0 0 0 1.8-1.8c.285-5.288.866-10.557 1.74-15.78a1.85 1.85 0 0 0-.186-1.362c-.234-.414-.619-.721-1.074-.858-.461-.123-.953-.06-1.368.175a1.82 1.82 0 0 0-.852 1.085l.02-.04zm-2.17 22.05l-.18.43-.07.48.07.48.18.44.28.36.37.28.22.1.22.09h.25.24.05l.48-.06.43-.19.37-.28.28-.37c.084-.137.148-.285.19-.44l.07-.48-.07-.48-.09-.21c.06.16-.06-.15-.1-.22-.113-.206-.274-.381-.47-.51-.169-.162-.381-.273-.61-.32a1.26 1.26 0 0 0-.72 0 1.35 1.35 0 0 0-.67.21l-.36.28a1.8 1.8 0 0 0-.47.8l-.06.48c-.003.321.084.636.25.91l-.18-.43-.07-.48.07-.48.19-.43.28-.37.36-.28.43-.18.48-.06H162l.47.06.44.18.37.28.28.37.19.43.07.48-.07.48-.18.43a1.92 1.92 0 0 0 .18-1.39c-.049-.229-.16-.439-.32-.61-.123-.198-.295-.36-.5-.47l-.43-.18c-.328-.085-.672-.085-1 0l-.43.18a1.84 1.84 0 0 0-.65.65l-.05.04z" fill="#28c99e"/><g fill="#28c99b"><path d="M110.87 36.32a3.86 3.86 0 0 1 4.12 2c.302.716.332 1.517.086 2.253a3.19 3.19 0 0 1-1.426 1.747c-.94.51-2 .78-3 1.26A6.18 6.18 0 0 0 108.1 46c-1.21 2-1.15 4.46-.93 6.7a1.83 1.83 0 0 0 3.07 1.206c.339-.314.546-.745.58-1.206-.2-2-.55-4.73 1.59-5.83 1.11-.57 2.37-.83 3.43-1.51a6.52 6.52 0 0 0 2.45-2.9 7 7 0 0 0 .481-3.81c-.198-1.29-.752-2.499-1.601-3.49a7.79 7.79 0 0 0-7.27-2.32 1.83 1.83 0 0 0-1.27 2.16c.135.462.444.853.862 1.091a1.86 1.86 0 0 0 1.378.188v.04zm-3.52 21.45l-.1.25a1.39 1.39 0 0 0 0 .73 1.31 1.31 0 0 0 .22.68c.11.208.272.384.47.51a1.38 1.38 0 0 0 .62.33l.48.06a1.74 1.74 0 0 0 .92-.25l.37-.28a1.84 1.84 0 0 0 .47-.81l.1-.25c.06-.24.06-.49 0-.73-.013-.242-.089-.476-.22-.68-.11-.208-.272-.384-.47-.51a1.27 1.27 0 0 0-.62-.32l-.48-.07a1.74 1.74 0 0 0-.92.25l-.37.28a1.75 1.75 0 0 0-.47.81zm-39-11.22c2.25-2.63 4.45-5.31 6.83-7.83 1.18-1.25 2.41-2.47 3.7-3.61.51-.46 1.05-1.14 1.76-1.2a8.65 8.65 0 0 1 2.53.8c5.81 2 11.12 5 16.49 7.92 2.07 1.12 3.91-2 1.85-3.15-6.14-3.34-12.21-6.69-18.9-8.79-1.76-.55-3.22-.63-4.74.53-1.467 1.158-2.847 2.421-4.13 3.78-2.82 2.86-5.37 6-8 9-1.52 1.78 1 4.37 2.58 2.58l.03-.03z"/><path d="M67.91 42.26c.064 4.564.645 9.106 1.73 13.54a5.24 5.24 0 0 0 3.41 3.91c1.87.59 4.07.28 6 .21 4.74-.173 9.477-.507 14.21-1 1.82-.19 4.26-.09 5.75-1.31 1.66-1.35 1.32-3.4 1.07-5.28-.685-4.896-1.687-9.743-3-14.51a1.83 1.83 0 0 0-2.25-1.226 1.83 1.83 0 0 0-1.27 2.226c1.175 4.276 2.1 8.617 2.77 13 .08.5.64 2.55.34 2.93s-2.29.41-2.87.47a218.9 218.9 0 0 1-7.23.66l-7.25.4c-1.12 0-2.23.08-3.35.09-.8 0-1.89.14-2.44-.56a6.73 6.73 0 0 1-.74-2.68c-.25-1.24-.47-2.5-.65-3.75a67.89 67.89 0 0 1-.58-7.11c-.08-2.35-3.73-2.36-3.65 0v-.01z"/><path d="M86.27 45.22c-.79-.53-3.52 0-5.11.19-.55.09-1.18.26-1.39.78a1.59 1.59 0 0 0 0 .94 76.55 76.55 0 0 0 2.72 10.22 1 1 0 0 0 .28.5 1 1 0 0 0 .71.16h4.34a1.4 1.4 0 0 0 1-.29 1.21 1.21 0 0 0 .24-.74c.4-4.05-2.01-11.22-2.79-11.76z"/></g><path d="M240 194.67c-26.85 12.44-61.13 15.2-83.55 12.72 1.45 4.3-2.88 9.34-7.55 8.8-.8 4.26-6.79 6.66-10.5 4.21-1 4.77-13.37 6.18-18.4 5.54-12.08-1.54-24.87-12.54-37-12.18-30.89.91-70.53-10.87-83-17.56v-63.53c18.78 16.65 53.44 35.55 82.5 39.11 1.59.343 3.213.514 4.84.51 1.695-.269 3.337-.798 4.87-1.57 5.62-2.46 12.41-4.68 17.68-1.6 1 .6 2.06 1.42 3.26 1.32a4.92 4.92 0 0 0 2-.83c4.12-2.42 9.47-4.91 13.82-2.81 11.67 5.64 26.58 5.37 37.07 4 25.84-3.44 59.39-21 73.95-41.34l.01 65.21z" fill="#ffe7e2"/><g fill="#343b38"><path d="M113.5 169.74a19.02 19.02 0 0 0-3.86 2 24.48 24.48 0 0 0-3.45 2.73c-1.092 1.023-2.096 2.137-3 3.33-.468.556-.81 1.208-1 1.91-.143.806-.035 1.637.31 2.38 1 2.41 3.51 3.8 6 4.34a17.5 17.5 0 0 0 9.07-.62c3.355-1.247 6.532-2.928 9.45-5 .85-.56.06-1.93-.8-1.38-2.386 1.66-4.92 3.097-7.57 4.29-2.619 1.121-5.467 1.604-8.31 1.41a8.18 8.18 0 0 1-3.175-.74c-.998-.457-1.894-1.11-2.635-1.92-.377-.463-.65-1.002-.8-1.58a2.2 2.2 0 0 1 .003-.956c.07-.314.209-.609.407-.864.754-1.08 1.612-2.085 2.56-3 1.055-1.045 2.188-2.008 3.39-2.88 1.26-.92 2.6-1.65 3.92-2.46.55-.33.2-1.3-.45-1.07l-.06.08z"/><path d="M124.49 181.89a30.56 30.56 0 0 0 3.65 1.62l3.61 1.79 6.83 3.94c4.34 2.65 8.62 5.62 11.86 9.59a22.7 22.7 0 0 1 2.21 3.22c.33.57.63 1.16.9 1.75s.43 1.53.92 2c.099.095.221.163.354.197a.79.79 0 0 0 .756-.201c.099-.095.171-.215.21-.346a3.27 3.27 0 0 0-.45-1.82c-.27-.63-.55-1.24-.87-1.84a24.3 24.3 0 0 0-1.94-3.06 32.03 32.03 0 0 0-5.31-5.53 57.71 57.71 0 0 0-6.73-4.67c-2.35-1.43-4.74-2.79-7.19-4a52.23 52.23 0 0 0-4.17-1.9c-1.403-.689-2.91-1.145-4.46-1.35-.078.004-.152.033-.213.083a.37.37 0 0 0-.111.42c.028.073.078.135.144.177v-.07zm13.7 37.24a2.57 2.57 0 0 0-1.2-1.38l-1.74-1.15a26.54 26.54 0 0 0-3.69-1.76l-3.9-1.38-2-.56c-.641-.231-1.319-.343-2-.33-.063.019-.121.055-.167.102s-.079.107-.096.171a.39.39 0 0 0-.001.195c.016.065.049.124.094.172a5.54 5.54 0 0 0 1.75.73c.63.24 1.29.41 1.94.61l3.82 1.34a34.71 34.71 0 0 1 3.64 1.73l1.64 1a3.39 3.39 0 0 0 1.68.81c.036-.002.07-.011.102-.028a.24.24 0 0 0 .079-.07c.021-.028.036-.061.042-.096s.006-.071-.003-.106h.01zm10.93-3.98a4.48 4.48 0 0 0-.49-2.14 14.52 14.52 0 0 0-1-1.88 14.7 14.7 0 0 0-2.81-3.33A28.37 28.37 0 0 0 141 205c-.637-.418-1.306-.785-2-1.1a5.77 5.77 0 0 0-2.17-.63c-.051.003-.099.021-.138.053s-.068.075-.081.124-.011.1.007.147.05.088.092.116c.62.41 1.33.69 2 1.11l1.75 1.17c1.263.822 2.472 1.724 3.62 2.7 1.035.916 1.94 1.969 2.69 3.13.365.554.699 1.129 1 1.72a9.36 9.36 0 0 0 1 1.75c.16.19.42 0 .44-.18l-.09.04z"/></g></svg>
